X: 9192
T: Daly's Mill
R: polka
M: 2/4
K: Amajor
A>c ef|ec c/d/c/B/|Ac ef|e2 e2|
A>c ef|ec c/d/c/B/|AF FE/F/|1 A2 A2:|2 A2 A|
c/e/|:fe c/d/c/B/|AF FE|Ac/B/ Ac|e2 ce|
fe c/d/c/B/|AF FE|Ac/B/ AF|1 A2 A2:|2 A2 E2|

